X: 13517
T: Flowers Of Red Hill, The
R: reel
M: 4/4
K: Adorian
|eA A2 eAgA|eA A2 gAfA|eA A2 e2af|gedB GA (3Bcd|
eA A2 gAfA|eA A2 eAdA|eA A2 e2af|gedB GA (3Bcd|
ea a2 ba a2|eaag egdg|ea a2 ba a2|e2 ef gd (3Bcd|
ea a2 ba a2|eaaf g2 ga|b2bg aged|eaag ed(3Bcd||

